images/payment/payment-6.svg

<svg width="261" height="87" viewBox="0 0 261 87" fill="none" xmlns="http://www.w3.org/2000/svg">
<rect x="0.720703" width="259.481" height="86.2911" rx="34.9367" fill="url(#paint0_linear_1181_25410)"/>
<path d="M28.0737 56.6455V30.5594H47.75V33.727H31.763V41.1802H39.887C42.9924 41.1802 45.3526 41.8261 46.9675 43.118C48.5823 44.4099 49.3897 46.2856 49.3897 48.7452C49.3897 51.2792 48.5078 53.2295 46.7439 54.5959C45.0048 55.9623 42.508 56.6455 39.2534 56.6455H28.0737ZM31.763 53.7015H39.1044C41.2658 53.7015 42.8931 53.2916 43.9862 52.4717C45.1042 51.6519 45.6632 50.4345 45.6632 48.8197C45.6632 45.6894 43.4769 44.1242 39.1044 44.1242H31.763V53.7015ZM66.8467 56.6455V52.4717L66.6604 51.6892V44.5714C66.6604 43.0559 66.2132 41.8882 65.3188 41.0684C64.4493 40.2237 63.1326 39.8014 61.3687 39.8014C60.201 39.8014 59.0582 40.0001 57.9402 40.3976C56.8222 40.7703 55.8782 41.2796 55.108 41.9255L53.6174 39.2424C54.636 38.4225 55.8533 37.8014 57.2694 37.3791C58.7104 36.9319 60.2134 36.7083 61.7786 36.7083C64.4866 36.7083 66.5735 37.3667 68.0393 38.6834C69.505 40.0001 70.2379 42.0125 70.2379 44.7204V56.6455H66.8467ZM60.3625 56.8691C58.8967 56.8691 57.6048 56.6207 56.4868 56.1238C55.3937 55.6269 54.549 54.9437 53.9528 54.0742C53.3565 53.1798 53.0584 52.1736 53.0584 51.0556C53.0584 49.9873 53.3068 49.0184 53.8037 48.1489C54.3254 47.2794 55.1577 46.5837 56.3005 46.062C57.4682 45.5403 59.0333 45.2794 60.996 45.2794H67.2567V47.8508H61.1451C59.3563 47.8508 58.1514 48.1489 57.5303 48.7452C56.9092 49.3414 56.5986 50.0619 56.5986 50.9066C56.5986 51.8755 56.9837 52.6581 57.7539 53.2543C58.524 53.8257 59.5923 54.1114 60.9587 54.1114C62.3003 54.1114 63.468 53.8133 64.4617 53.2171C65.4803 52.6208 66.2132 51.7513 66.6604 50.6084L67.3685 53.068C66.8964 54.2357 66.0642 55.1673 64.8717 55.8629C63.6791 56.5337 62.1761 56.8691 60.3625 56.8691ZM87.1517 56.8691C85.512 56.8691 84.0089 56.4964 82.6425 55.7511C81.3009 54.981 80.2202 53.8506 79.4004 52.3599C78.6054 50.8693 78.2079 49.006 78.2079 46.7701C78.2079 44.5341 78.5929 42.6708 79.3631 41.1802C80.1581 39.6896 81.2264 38.5716 82.568 37.8263C83.9344 37.0809 85.4623 36.7083 87.1517 36.7083C89.0895 36.7083 90.8037 37.1306 92.2944 37.9753C93.785 38.82 94.9651 40.0001 95.8346 41.5156C96.7041 43.0062 97.1389 44.7577 97.1389 46.7701C97.1389 48.7824 96.7041 50.5463 95.8346 52.0618C94.9651 53.5773 93.785 54.7574 92.2944 55.6021C90.8037 56.4468 89.0895 56.8691 87.1517 56.8691ZM76.68 63.8751V36.8946H80.1084V42.2236L79.8848 46.8073L80.2575 51.391V63.8751H76.68ZM86.8535 53.7388C88.1206 53.7388 89.251 53.4531 90.2447 52.8817C91.2633 52.3103 92.0583 51.5028 92.6297 50.4594C93.226 49.3911 93.5241 48.1613 93.5241 46.7701C93.5241 45.354 93.226 44.1366 92.6297 43.118C92.0583 42.0746 91.2633 41.2671 90.2447 40.6957C89.251 40.1243 88.1206 39.8386 86.8535 39.8386C85.6113 39.8386 84.4809 40.1243 83.4624 40.6957C82.4686 41.2671 81.6736 42.0746 81.0773 43.118C80.5059 44.1366 80.2202 45.354 80.2202 46.7701C80.2202 48.1613 80.5059 49.3911 81.0773 50.4594C81.6736 51.5028 82.4686 52.3103 83.4624 52.8817C84.4809 53.4531 85.6113 53.7388 86.8535 53.7388Z" fill="black"/>
<path fill-rule="evenodd" clip-rule="evenodd" d="M146.831 41.9115C147.158 42.2391 147.342 42.683 147.342 43.146C147.342 43.6089 147.158 44.0528 146.831 44.3804L132.856 58.3551C132.696 58.5267 132.503 58.6643 132.289 58.7598C132.075 58.8553 131.844 58.9066 131.609 58.9108C131.375 58.9149 131.142 58.8718 130.924 58.7839C130.707 58.6961 130.509 58.5653 130.343 58.3994C130.177 58.2335 130.046 58.0359 129.959 57.8184C129.871 57.6009 129.828 57.3679 129.832 57.1334C129.836 56.8988 129.887 56.6675 129.983 56.4533C130.078 56.239 130.216 56.0461 130.387 55.8862L141.381 44.8928L108.331 44.8928C107.867 44.8928 107.423 44.7087 107.095 44.3811C106.768 44.0536 106.584 43.6092 106.584 43.146C106.584 42.6827 106.768 42.2383 107.095 41.9108C107.423 41.5832 107.867 41.3991 108.331 41.3991L141.381 41.3991L130.387 30.4057C130.216 30.2458 130.078 30.0529 129.983 29.8386C129.887 29.6244 129.836 29.3931 129.832 29.1585C129.828 28.924 129.871 28.691 129.959 28.4735C130.046 28.256 130.177 28.0584 130.343 27.8925C130.509 27.7266 130.707 27.5959 130.924 27.508C131.142 27.4201 131.375 27.377 131.609 27.3811C131.844 27.3853 132.075 27.4366 132.289 27.5321C132.503 27.6276 132.696 27.7652 132.856 27.9368L146.831 41.9115Z" fill="#FF5100"/>
<path d="M164.301 56.6455V32.8326L165.233 33.8016H155.395V30.5594H176.897V33.8016H167.059L167.953 32.8326V56.6455H164.301ZM192.801 56.9436C190.814 56.9436 188.963 56.6082 187.248 55.9375C185.559 55.2667 184.093 54.335 182.851 53.1425C181.609 51.9252 180.64 50.5091 179.944 48.8942C179.249 47.2794 178.901 45.5154 178.901 43.6025C178.901 41.6895 179.249 39.9256 179.944 38.3107C180.64 36.6959 181.609 35.2922 182.851 34.0997C184.093 32.8823 185.559 31.9383 187.248 31.2675C188.938 30.5967 190.789 30.2613 192.801 30.2613C194.789 30.2613 196.615 30.5967 198.279 31.2675C199.969 31.9134 201.434 32.8451 202.676 34.0624C203.944 35.2549 204.912 36.6586 205.583 38.2735C206.279 39.8883 206.627 41.6646 206.627 43.6025C206.627 45.5403 206.279 47.3166 205.583 48.9315C204.912 50.5463 203.944 51.9624 202.676 53.1798C201.434 54.3723 199.969 55.3039 198.279 55.9747C196.615 56.6207 194.789 56.9436 192.801 56.9436ZM192.801 53.627C194.242 53.627 195.571 53.3785 196.789 52.8817C198.031 52.3848 199.099 51.6892 199.993 50.7948C200.913 49.8755 201.621 48.8073 202.118 47.5899C202.639 46.3726 202.9 45.0434 202.9 43.6025C202.9 42.1615 202.639 40.8324 202.118 39.615C201.621 38.3977 200.913 37.3418 199.993 36.4474C199.099 35.5282 198.031 34.8202 196.789 34.3233C195.571 33.8264 194.242 33.578 192.801 33.578C191.335 33.578 189.981 33.8264 188.739 34.3233C187.522 34.8202 186.453 35.5282 185.534 36.4474C184.615 37.3418 183.895 38.3977 183.373 39.615C182.876 40.8324 182.627 42.1615 182.627 43.6025C182.627 45.0434 182.876 46.3726 183.373 47.5899C183.895 48.8073 184.615 49.8755 185.534 50.7948C186.453 51.6892 187.522 52.3848 188.739 52.8817C189.981 53.3785 191.335 53.627 192.801 53.627ZM212.651 56.6455V30.5594H223.868C226.7 30.5594 228.924 31.1308 230.539 32.2737C232.153 33.4165 232.961 35.081 232.961 37.2673C232.961 39.4039 232.191 41.0435 230.65 42.1864C229.11 43.3043 227.085 43.8633 224.576 43.8633L225.247 42.7454C228.154 42.7454 230.377 43.3292 231.917 44.4968C233.483 45.6397 234.265 47.3166 234.265 49.5277C234.265 51.7637 233.445 53.5152 231.806 54.7822C230.191 56.0244 227.781 56.6455 224.576 56.6455H212.651ZM216.34 53.7015H224.501C226.489 53.7015 227.98 53.3413 228.973 52.6208C229.992 51.8755 230.501 50.7451 230.501 49.2296C230.501 47.7141 229.992 46.6086 228.973 45.913C227.98 45.2173 226.489 44.8695 224.501 44.8695H216.34V53.7015ZM216.34 42.0373H223.607C225.421 42.0373 226.8 41.6771 227.744 40.9566C228.713 40.2361 229.197 39.1803 229.197 37.789C229.197 36.3729 228.713 35.3046 227.744 34.5841C226.8 33.8637 225.421 33.5034 223.607 33.5034H216.34V42.0373Z" fill="black"/>
<defs>
<linearGradient id="paint0_linear_1181_25410" x1="130.461" y1="0" x2="130.461" y2="86.2911" gradientUnits="userSpaceOnUse">
<stop stop-color="white"/>
<stop offset="1" stop-color="#FFF5EF"/>
</linearGradient>
</defs>
</svg>

<svg width="261" height="87" fill="none" xmlns="http://www.w3.org/2000/svg"><rect x=".721" width="259.481" height="86.291" rx="34.937" fill="url(#paint0_linear_1181_25410)"/><path d="M28.074 56.645V30.56H47.75v3.168H31.763v7.453h8.124c3.105 0 5.466.646 7.08 1.938 1.615 1.292 2.423 3.168 2.423 5.627 0 2.534-.882 4.485-2.646 5.85-1.74 1.367-4.236 2.05-7.49 2.05h-11.18zm3.689-2.944h7.341c2.162 0 3.79-.41 4.882-1.23 1.118-.82 1.677-2.036 1.677-3.651 0-3.13-2.186-4.696-6.559-4.696h-7.341v9.578zm35.084 2.944v-4.173l-.187-.783v-7.118c0-1.515-.447-2.683-1.341-3.503-.87-.844-2.186-1.267-3.95-1.267-1.168 0-2.31.2-3.429.597-1.118.372-2.062.882-2.832 1.527l-1.49-2.683c1.018-.82 2.235-1.44 3.651-1.863a15.125 15.125 0 014.51-.67c2.708 0 4.794.658 6.26 1.974 1.466 1.317 2.199 3.33 2.199 6.037v11.925h-3.391zm-6.484.224c-1.466 0-2.758-.248-3.876-.745-1.093-.497-1.938-1.18-2.534-2.05-.597-.894-.895-1.9-.895-3.018 0-1.069.249-2.038.746-2.907.521-.87 1.354-1.565 2.496-2.087 1.168-.522 2.733-.783 4.696-.783h6.26v2.572h-6.11c-1.79 0-2.995.298-3.616.894-.62.596-.931 1.317-.931 2.162 0 .969.385 1.751 1.155 2.347.77.572 1.838.857 3.205.857 1.341 0 2.509-.298 3.503-.894 1.018-.596 1.751-1.466 2.198-2.609l.709 2.46c-.473 1.168-1.305 2.1-2.497 2.795-1.193.67-2.696 1.006-4.51 1.006zm26.789 0c-1.64 0-3.143-.373-4.51-1.118-1.341-.77-2.422-1.9-3.242-3.391-.795-1.49-1.192-3.354-1.192-5.59 0-2.236.385-4.1 1.155-5.59.795-1.49 1.863-2.608 3.205-3.354 1.366-.745 2.894-1.118 4.584-1.118 1.938 0 3.652.423 5.142 1.267a9.316 9.316 0 013.54 3.54c.87 1.491 1.305 3.243 1.305 5.255s-.435 3.776-1.304 5.292c-.87 1.515-2.05 2.695-3.54 3.54-1.491.845-3.206 1.267-5.143 1.267zM76.68 63.875v-26.98h3.428v5.329l-.223 4.583.372 4.584v12.484H76.68zM86.853 53.74c1.268 0 2.398-.286 3.392-.857a6.05 6.05 0 002.385-2.423c.596-1.068.894-2.298.894-3.689 0-1.416-.298-2.633-.894-3.652a6.05 6.05 0 00-2.385-2.422c-.994-.572-2.124-.857-3.392-.857-1.242 0-2.372.285-3.39.857-.994.571-1.79 1.379-2.386 2.422-.571 1.019-.857 2.236-.857 3.652 0 1.391.286 2.621.857 3.69.597 1.043 1.392 1.85 2.385 2.422 1.019.571 2.15.857 3.391.857z" fill="#000"/><path fill-rule="evenodd" clip-rule="evenodd" d="M146.831 41.911a1.748 1.748 0 010 2.47l-13.975 13.974a1.751 1.751 0 01-1.932.429 1.752 1.752 0 01-.965-.966 1.747 1.747 0 01.428-1.932l10.994-10.993h-33.05a1.748 1.748 0 01-1.236-2.982 1.748 1.748 0 011.236-.512h33.05l-10.994-10.993a1.747 1.747 0 112.469-2.47l13.975 13.975z" fill="#FF5100"/><path d="M164.301 56.645V32.834l.932.969h-9.838V30.56h21.502v3.243h-9.838l.894-.97v23.813h-3.652zm28.5.299c-1.987 0-3.838-.336-5.553-1.007-1.689-.67-3.155-1.602-4.397-2.794a13.21 13.21 0 01-2.907-4.249c-.695-1.615-1.043-3.379-1.043-5.291 0-1.913.348-3.677 1.043-5.292a12.792 12.792 0 012.907-4.211c1.242-1.218 2.708-2.162 4.397-2.833 1.69-.67 3.541-1.006 5.553-1.006 1.988 0 3.814.336 5.478 1.006 1.69.646 3.155 1.578 4.397 2.795a12.072 12.072 0 012.907 4.212c.696 1.614 1.044 3.39 1.044 5.328 0 1.938-.348 3.715-1.044 5.33a12.452 12.452 0 01-2.907 4.248c-1.242 1.192-2.707 2.124-4.397 2.795-1.664.646-3.49.969-5.478.969zm0-3.317c1.441 0 2.77-.248 3.988-.745a9.422 9.422 0 003.204-2.087 9.626 9.626 0 002.125-3.205c.521-1.217.782-2.547.782-3.988 0-1.44-.261-2.77-.782-3.987a9.23 9.23 0 00-2.125-3.168 9.151 9.151 0 00-3.204-2.124c-1.218-.497-2.547-.745-3.988-.745-1.466 0-2.82.248-4.062.745a9.635 9.635 0 00-3.205 2.124 9.707 9.707 0 00-2.161 3.168c-.497 1.217-.746 2.546-.746 3.987 0 1.441.249 2.77.746 3.988a10.138 10.138 0 002.161 3.205 9.928 9.928 0 003.205 2.087c1.242.497 2.596.745 4.062.745zm19.85 3.018V30.56h11.217c2.832 0 5.056.572 6.671 1.715 1.614 1.142 2.422 2.807 2.422 4.993 0 2.137-.77 3.776-2.311 4.92-1.54 1.117-3.565 1.676-6.074 1.676l.671-1.118c2.907 0 5.13.584 6.67 1.752 1.566 1.143 2.348 2.82 2.348 5.03 0 2.237-.82 3.988-2.459 5.255-1.615 1.242-4.025 1.864-7.23 1.864h-11.925zm3.689-2.944h8.161c1.988 0 3.479-.36 4.472-1.08 1.019-.745 1.528-1.876 1.528-3.391 0-1.516-.509-2.621-1.528-3.317-.993-.696-2.484-1.043-4.472-1.043h-8.161v8.832zm0-11.664h7.267c1.814 0 3.193-.36 4.137-1.08.969-.72 1.453-1.777 1.453-3.168 0-1.416-.484-2.484-1.453-3.205-.944-.72-2.323-1.08-4.137-1.08h-7.267v8.533z" fill="#000"/><defs><linearGradient id="paint0_linear_1181_25410" x1="130.461" y1="0" x2="130.461" y2="86.291" gradientUnits="userSpaceOnUse"><stop stop-color="#fff"/><stop offset="1" stop-color="#FFF5EF"/></linearGradient></defs></svg>
